Numix-Light/16/status/indicator-keyboard-Ku-8.svg

<?xml version="1.0" encoding="UTF-8" standalone="no"?>
<svg
   xmlns:dc="http://purl.org/dc/elements/1.1/"
   xmlns:cc="http://creativecommons.org/ns#"
   xmlns:rdf="http://www.w3.org/1999/02/22-rdf-syntax-ns#"
   xmlns:svg="http://www.w3.org/2000/svg"
   xmlns="http://www.w3.org/2000/svg"
   xmlns:sodipodi="http://sodipodi.sourceforge.net/DTD/sodipodi-0.dtd"
   xmlns:inkscape="http://www.inkscape.org/namespaces/inkscape"
   viewBox="0 0 16 16"
   id="svg2"
   version="1.1"
   inkscape:version="0.91 r13725"
   sodipodi:docname="indicator-keyboard-Ku-8.svg">
  <metadata
     id="metadata14">
    <rdf:RDF>
      <cc:Work
         rdf:about="">
        <dc:format>image/svg+xml</dc:format>
        <dc:type
           rdf:resource="http://purl.org/dc/dcmitype/StillImage" />
      </cc:Work>
    </rdf:RDF>
  </metadata>
  <defs
     id="defs12" />
  <sodipodi:namedview
     pagecolor="#ffffff"
     bordercolor="#666666"
     borderopacity="1"
     objecttolerance="10"
     gridtolerance="10"
     guidetolerance="10"
     inkscape:pageopacity="0"
     inkscape:pageshadow="2"
     inkscape:window-width="640"
     inkscape:window-height="480"
     id="namedview10"
     showgrid="false"
     inkscape:zoom="14.75"
     inkscape:cx="8"
     inkscape:cy="8"
     inkscape:window-x="65"
     inkscape:window-y="24"
     inkscape:window-maximized="0"
     inkscape:current-layer="svg2" />
  <path
     style="fill:#353535;fill-opacity:1"
     d="M 1.5996094 0 C 0.71320937 2.9605947e-16 0 0.71320937 0 1.5996094 L 0 14.400391 C 2.9605947e-16 15.286791 0.71320937 16 1.5996094 16 L 14.400391 16 C 15.286791 16 16 15.286791 16 14.400391 L 16 1.5996094 C 16 0.71320937 15.286791 0 14.400391 0 L 1.5996094 0 z M 1.6933594 4.859375 L 2.3046875 4.859375 L 2.3046875 7.765625 C 2.5326875 7.561625 2.7845469 7.3284531 3.0605469 7.0644531 C 3.3425469 6.7944531 3.6186719 6.5239062 3.8886719 6.2539062 C 4.1646719 5.9839063 4.4221094 5.7264687 4.6621094 5.4804688 C 4.9021094 5.2344688 5.0942813 5.027375 5.2382812 4.859375 L 5.9765625 4.859375 C 5.8025625 5.045375 5.5917031 5.2673906 5.3457031 5.5253906 C 5.0997031 5.7773906 4.8404531 6.0385937 4.5644531 6.3085938 C 4.2884531 6.5785938 4.0123281 6.845375 3.7363281 7.109375 C 3.4663281 7.367375 3.2218594 7.5949688 3.0058594 7.7929688 C 3.1798594 7.9009687 3.3664531 8.0352656 3.5644531 8.1972656 C 3.7684531 8.3532656 3.9717813 8.5287031 4.1757812 8.7207031 C 4.3857812 8.9067031 4.5910625 9.1044531 4.7890625 9.3144531 C 4.9930625 9.5184531 5.1814687 9.7255469 5.3554688 9.9355469 C 5.5354688 10.145547 5.6940312 10.348875 5.8320312 10.546875 C 5.9760313 10.744875 6.0935937 10.927703 6.1835938 11.095703 L 5.5 11.095703 C 5.296 10.783703 5.0646406 10.475922 4.8066406 10.169922 C 4.5546406 9.8639217 4.2878594 9.5746875 4.0058594 9.3046875 C 3.7238594 9.0346875 3.434625 8.7884062 3.140625 8.5664062 C 2.852625 8.3444063 2.5746875 8.1597656 2.3046875 8.0097656 L 2.3046875 11.095703 L 1.6933594 11.095703 L 1.6933594 4.859375 z M 6.9980469 6.4433594 L 7.5839844 6.4433594 L 7.5839844 8.8632812 C 7.5839844 9.1932813 7.60825 9.4731719 7.65625 9.7011719 C 7.70425 9.9291721 7.782625 10.115766 7.890625 10.259766 C 7.998625 10.397766 8.1366875 10.498453 8.3046875 10.564453 C 8.4786875 10.624453 8.6875937 10.654297 8.9335938 10.654297 C 9.2095938 10.654297 9.4502969 10.639375 9.6542969 10.609375 C 9.8582969 10.579375 9.9870157 10.553297 10.041016 10.529297 L 10.041016 6.4433594 L 10.625 6.4433594 L 10.625 10.933594 C 10.451 10.981594 10.217828 11.035703 9.9238281 11.095703 C 9.6298281 11.155703 9.26975 11.185547 8.84375 11.185547 C 8.49575 11.185547 8.2047031 11.135203 7.9707031 11.033203 C 7.7367031 10.931203 7.5482969 10.787562 7.4042969 10.601562 C 7.2602969 10.415563 7.1558438 10.189781 7.0898438 9.9257812 C 7.0298438 9.6617813 6.9980469 9.3707344 6.9980469 9.0527344 L 6.9980469 6.4433594 z M 13.042969 8.7539062 C 13.245769 8.7539062 13.422113 8.7852563 13.570312 8.8476562 C 13.718512 8.9061562 13.839994 8.9845313 13.933594 9.0820312 C 14.031094 9.1795313 14.101631 9.2912156 14.144531 9.4160156 C 14.191331 9.5408156 14.214844 9.6681812 14.214844 9.8007812 C 14.214844 9.9294812 14.19525 10.049003 14.15625 10.158203 C 14.11725 10.263503 14.066306 10.361472 14.003906 10.451172 C 13.941506 10.536972 13.870969 10.613387 13.792969 10.679688 C 13.714969 10.745988 13.638553 10.800856 13.564453 10.847656 C 13.837453 10.964656 14.029472 11.111609 14.138672 11.287109 C 14.251772 11.462609 14.306641 11.64875 14.306641 11.84375 C 14.306641 12.01145 14.277244 12.164288 14.214844 12.304688 C 14.156344 12.445087 14.072091 12.566569 13.962891 12.667969 C 13.853691 12.765469 13.720453 12.841884 13.564453 12.896484 C 13.408453 12.954984 13.234069 12.984375 13.042969 12.984375 C 12.851869 12.984375 12.679437 12.956944 12.523438 12.902344 C 12.371337 12.847744 12.2381 12.771328 12.125 12.673828 C 12.0158 12.572428 11.929588 12.454866 11.867188 12.322266 C 11.808687 12.185766 11.78125 12.038806 11.78125 11.878906 C 11.78125 11.742406 11.798891 11.618966 11.837891 11.509766 C 11.876891 11.396666 11.927834 11.296737 11.990234 11.210938 C 12.056534 11.121237 12.130991 11.042863 12.212891 10.976562 C 12.298691 10.906362 12.388822 10.845622 12.482422 10.794922 C 12.244522 10.677922 12.081894 10.540759 11.996094 10.380859 C 11.910294 10.220959 11.867188 10.046575 11.867188 9.859375 C 11.867188 9.691675 11.896578 9.5407968 11.955078 9.4042969 C 12.013578 9.2677969 12.093912 9.1521938 12.195312 9.0585938 C 12.300612 8.9610937 12.426013 8.8866375 12.570312 8.8359375 C 12.714613 8.7813375 12.871369 8.7539062 13.042969 8.7539062 z M 13.042969 9.0820312 C 12.914269 9.0820312 12.802578 9.101625 12.705078 9.140625 C 12.607578 9.179625 12.525284 9.2344875 12.458984 9.3046875 C 12.396584 9.3709875 12.3476 9.4493625 12.3125 9.5390625 C 12.2813 9.6287624 12.265625 9.7208594 12.265625 9.8183594 C 12.265625 9.9275594 12.277381 10.027487 12.300781 10.117188 C 12.328081 10.206888 12.377066 10.289181 12.447266 10.363281 C 12.517466 10.433481 12.615434 10.5001 12.740234 10.5625 C 12.865034 10.621 13.027669 10.677822 13.230469 10.732422 C 13.409869 10.631022 13.552903 10.505622 13.658203 10.357422 C 13.763503 10.209222 13.816406 10.023081 13.816406 9.8007812 C 13.816406 9.7110813 13.800731 9.6248624 13.769531 9.5390625 C 13.742231 9.4532625 13.697166 9.3768469 13.634766 9.3105469 C 13.576266 9.2403469 13.497891 9.1854844 13.400391 9.1464844 C 13.302891 9.1035844 13.183369 9.0820312 13.042969 9.0820312 z M 12.810547 10.929688 C 12.611647 11.023287 12.456856 11.150647 12.347656 11.310547 C 12.238456 11.466547 12.183594 11.656606 12.183594 11.878906 C 12.183594 11.988106 12.201228 12.088041 12.236328 12.181641 C 12.271428 12.275241 12.324331 12.357534 12.394531 12.427734 C 12.468631 12.497934 12.558762 12.554756 12.664062 12.597656 C 12.773262 12.636656 12.898669 12.65625 13.042969 12.65625 C 13.187269 12.65625 13.312669 12.636656 13.417969 12.597656 C 13.527169 12.554756 13.6173 12.497934 13.6875 12.427734 C 13.7616 12.357534 13.816462 12.275241 13.851562 12.181641 C 13.886662 12.088041 13.904297 11.988106 13.904297 11.878906 C 13.904297 11.711206 13.870988 11.57405 13.804688 11.46875 C 13.742287 11.36345 13.658034 11.277238 13.552734 11.210938 C 13.451334 11.144638 13.333772 11.091734 13.201172 11.052734 C 13.072472 11.013734 12.943147 10.972587 12.810547 10.929688 z "
     id="path4" />
</svg>

<svg xmlns="http://www.w3.org/2000/svg" viewBox="0 0 16 16">
 <path d="m 1.6 0 c -0.886 0 -1.6 0.713 -1.6 1.6 l 0 12.801 c 0 0.886 0.713 1.6 1.6 1.6 l 12.801 0 c 0.886 0 1.6 -0.713 1.6 -1.6 l 0 -12.801 c 0 -0.886 -0.713 -1.6 -1.6 -1.6 l -12.801 0 z m 0.094 4.859 l 0.611 0 l 0 2.906 c 0.228 -0.204 0.48 -0.437 0.756 -0.701 c 0.282 -0.27 0.558 -0.541 0.828 -0.811 c 0.276 -0.27 0.533 -0.527 0.773 -0.773 c 0.24 -0.246 0.432 -0.453 0.576 -0.621 l 0.738 0 c -0.174 0.186 -0.385 0.408 -0.631 0.666 c -0.246 0.252 -0.505 0.513 -0.781 0.783 c -0.276 0.27 -0.552 0.537 -0.828 0.801 c -0.27 0.258 -0.514 0.486 -0.73 0.684 c 0.174 0.108 0.361 0.242 0.559 0.404 c 0.204 0.156 0.407 0.331 0.611 0.523 c 0.21 0.186 0.415 0.384 0.613 0.594 c 0.204 0.204 0.392 0.411 0.566 0.621 c 0.18 0.21 0.339 0.413 0.477 0.611 c 0.144 0.198 0.262 0.381 0.352 0.549 l -0.684 0 c -0.204 -0.312 -0.435 -0.62 -0.693 -0.926 c -0.252 -0.306 -0.519 -0.595 -0.801 -0.865 c -0.282 -0.27 -0.571 -0.516 -0.865 -0.738 c -0.288 -0.222 -0.566 -0.407 -0.836 -0.557 l 0 3.086 l -0.611 0 l 0 -6.236 z m 5.305 1.584 l 0.586 0 l 0 2.42 c 0 0.33 0.024 0.61 0.072 0.838 c 0.048 0.228 0.126 0.415 0.234 0.559 c 0.108 0.138 0.246 0.239 0.414 0.305 c 0.174 0.06 0.383 0.09 0.629 0.09 c 0.276 0 0.517 -0.015 0.721 -0.045 c 0.204 -0.03 0.333 -0.056 0.387 -0.08 l 0 -4.086 l 0.584 0 l 0 4.49 c -0.174 0.048 -0.407 0.102 -0.701 0.162 c -0.294 0.06 -0.654 0.09 -1.08 0.09 c -0.348 0 -0.639 -0.05 -0.873 -0.152 c -0.234 -0.102 -0.422 -0.246 -0.566 -0.432 c -0.144 -0.186 -0.248 -0.412 -0.314 -0.676 c -0.06 -0.264 -0.092 -0.555 -0.092 -0.873 l 0 -2.609 z m 6.04 2.311 c 0.203 0 0.379 0.031 0.527 0.094 c 0.148 0.059 0.27 0.137 0.363 0.234 c 0.098 0.098 0.168 0.209 0.211 0.334 c 0.047 0.125 0.07 0.252 0.07 0.385 c 0 0.129 -0.02 0.248 -0.059 0.357 c -0.039 0.105 -0.09 0.203 -0.152 0.293 c -0.062 0.086 -0.133 0.162 -0.211 0.229 c -0.078 0.066 -0.154 0.121 -0.229 0.168 c 0.273 0.117 0.465 0.264 0.574 0.439 c 0.113 0.176 0.168 0.362 0.168 0.557 c 0 0.168 -0.029 0.321 -0.092 0.461 c -0.058 0.14 -0.143 0.262 -0.252 0.363 c -0.109 0.098 -0.242 0.174 -0.398 0.229 c -0.156 0.059 -0.33 0.088 -0.521 0.088 c -0.191 0 -0.364 -0.027 -0.52 -0.082 c -0.152 -0.055 -0.285 -0.131 -0.398 -0.229 c -0.109 -0.101 -0.195 -0.219 -0.258 -0.352 c -0.059 -0.137 -0.086 -0.283 -0.086 -0.443 c 0 -0.136 0.018 -0.26 0.057 -0.369 c 0.039 -0.113 0.09 -0.213 0.152 -0.299 c 0.066 -0.09 0.141 -0.168 0.223 -0.234 c 0.086 -0.07 0.176 -0.131 0.27 -0.182 c -0.238 -0.117 -0.401 -0.254 -0.486 -0.414 c -0.086 -0.16 -0.129 -0.334 -0.129 -0.521 c 0 -0.168 0.029 -0.319 0.088 -0.455 c 0.059 -0.136 0.139 -0.252 0.24 -0.346 c 0.105 -0.098 0.231 -0.172 0.375 -0.223 c 0.144 -0.055 0.301 -0.082 0.473 -0.082 z m 0 0.328 c -0.129 0 -0.24 0.02 -0.338 0.059 c -0.098 0.039 -0.18 0.094 -0.246 0.164 c -0.062 0.066 -0.111 0.145 -0.146 0.234 c -0.031 0.09 -0.047 0.182 -0.047 0.279 c 0 0.109 0.012 0.209 0.035 0.299 c 0.027 0.09 0.076 0.172 0.146 0.246 c 0.07 0.07 0.168 0.137 0.293 0.199 c 0.125 0.059 0.287 0.115 0.49 0.17 c 0.179 -0.101 0.322 -0.227 0.428 -0.375 c 0.105 -0.148 0.158 -0.334 0.158 -0.557 c 0 -0.09 -0.016 -0.176 -0.047 -0.262 c -0.027 -0.086 -0.072 -0.162 -0.135 -0.229 c -0.059 -0.07 -0.137 -0.125 -0.234 -0.164 c -0.098 -0.043 -0.217 -0.064 -0.357 -0.064 z m -0.232 1.848 c -0.199 0.094 -0.354 0.221 -0.463 0.381 c -0.109 0.156 -0.164 0.346 -0.164 0.568 c 0 0.109 0.018 0.209 0.053 0.303 c 0.035 0.094 0.088 0.176 0.158 0.246 c 0.074 0.07 0.164 0.127 0.27 0.17 c 0.109 0.039 0.235 0.059 0.379 0.059 c 0.144 0 0.27 -0.02 0.375 -0.059 c 0.109 -0.043 0.199 -0.1 0.27 -0.17 c 0.074 -0.07 0.129 -0.152 0.164 -0.246 c 0.035 -0.094 0.053 -0.194 0.053 -0.303 c 0 -0.168 -0.033 -0.305 -0.1 -0.41 c -0.062 -0.105 -0.147 -0.192 -0.252 -0.258 c -0.101 -0.066 -0.219 -0.119 -0.352 -0.158 c -0.129 -0.039 -0.258 -0.08 -0.391 -0.123 z" style="fill:#353535;fill-opacity:1"/>
</svg>
